X:1
T:Title
%%score { ( 1 3 ) | ( 2 4 ) }
L:1/8
Q:1/4=100
M:4/4
K:Ab
V:1 treble nm="Grand Piano"
V:3 treble 
V:2 treble 
V:4 treble 
V:1
 c>_c =c>d c2 A2 | [FB]>[FA] [A,DF]>[DFA] [CE]4 | [DGB]>[C_G=A] [D=GB]>[EGc] [C_GA]2 [FAc]2 | %3
w: Clyde~Willard * * * * *|||
 z4 [GB]4 | c>_c =c>d c2 A2 | [FB]>[FA] [DF]>[FA] E4 |[M:19/16] F>GA>Bce/-e/-e/-e/-e/-e-<e | %7
w: ||||
[M:4/4] [Gc]2 [GB]2 A4 | z4 d4 | z4 c4 | B>=A B>c B>F G>_A | G4- [Ge]4 | %12
w: |||||
 E2 [Gd]2 d->[Gd-] [Fd-]>[Ed] | z4 c4 | F>G A>B c e3 | [Gc]2 [GB]2 A4 |] %16
w: ||||
V:2
 [A,EA]>[A,=DA] [A,EA]>[A,FA] [A,EA]2[K:bass] [A,C]2 | [D,D]>[D,D] D,>D, A,4 | %2
 E,>E, E,>E, F,2 F,2 | B,>B, B,>B, E,4 | [A,EA]>[A,=DA] [A,EA]>[A,FA] [A,EA]2[K:bass] [A,C]2 | %5
 [D,D]>[D,D] [D,A,]>[D,D] [A,C]4 | %6
[M:19/16] F,>G,A,>B,[K:treble]C[A,CA]/-[A,CA]/-[A,CA]/-[A,CA]/-[A,CA]/-[A,CA]-<[A,CA] | %7
[M:4/4][K:bass] [E,E]2 [E,D]2 [A,C]4 | [E,G,]2 [E,B,]2 [E,B,]4 | z4 A2 z2 | %10
 [B,=DA]>[B,DA] [B,D=A]>[B,DA] [B,DA]>[B,D] [B,DF]>[B,DF] | z4 B,4 | [E,G,]2 [E,B,]2 [E,B,]4 | %13
 [A,C]2 [A,E]2 A2 z2 | F,>G, A,>B,[K:treble] C [A,CA]3 | [E,E]2 [E,D]2 [A,C]4 |] %16
V:3
 x8 | x8 | x8 | [=DAB]>[DAc] [DF]>[DAc] E2 D2 | x8 | x8 |[M:19/16] x19/2 |[M:4/4] x8 | %8
 E2 [Gd]2 G>G F>E | E2 c2 z z/ A/ G>G | x8 | [EB]4 z4 | z4 G2 z2 | E2 c2 z z/ A/ G>F | x8 | x8 |] %16
V:4
 x6[K:bass] x2 | x8 | x8 | x8 | x6[K:bass] x2 | x8 |[M:19/16] x4[K:treble] x11/2 | %7
[M:4/4][K:bass] x8 | x8 | [A,C]2 [A,E]2 [A,E]4 | x8 | E,8 | x8 | z4 [A,E]4 | x4[K:treble] x4 | %15
 x8 |] %16

